public/icons/tokens/eth.svg

<svg width="256" height="256" viewBox="0 0 256 256" fill="none" xmlns="http://www.w3.org/2000/svg">
  <path d="M128 256C198.692 256 256 198.692 256 128C256 57.3075 198.692 0 128 0C57.3075 0 0 57.3075 0 128C0 198.692 57.3075 256 128 256Z" fill="white"/>
  <path d="M131.482 188.289V247.253L204.358 144.563L131.482 188.289Z" fill="#3B3735"/>
  <path d="M201.709 125.347L131.482 8.74701V93.547L201.709 125.347Z" fill="#3B3735"/>
  <path d="M131.482 100.153V172.367L201.046 131.953L131.482 100.153Z" fill="#1F1D19"/>
  <path d="M54.626 125.347L124.852 8.74701V93.547L54.626 125.347Z" fill="#959190"/>
  <path d="M124.846 100.153V172.367L55.2822 131.953L124.846 100.153Z" fill="#403C3A"/>
  <path d="M124.851 188.289V247.253L51.9751 144.563L124.851 188.289Z" fill="#959190"/>
</svg>

<svg width="256" height="256" viewBox="0 0 256 256" fill="none" xmlns="http://www.w3.org/2000/svg"><path d="M128 256c70.692 0 128-57.308 128-128C256 57.308 198.692 0 128 0 57.308 0 0 57.307 0 128c0 70.692 57.307 128 128 128Z" fill="#fff"/><path d="M131.482 188.289v58.964l72.876-102.69-72.876 43.726Zm70.227-62.942-70.227-116.6v84.8l70.227 31.8Z" fill="#3B3735"/><path d="M131.482 100.153v72.214l69.564-40.414-69.564-31.8Z" fill="#1F1D19"/><path d="m54.626 125.347 70.226-116.6v84.8l-70.226 31.8Z" fill="#959190"/><path d="M124.846 100.153v72.214l-69.564-40.414 69.564-31.8Z" fill="#403C3A"/><path d="M124.851 188.289v58.964l-72.876-102.69 72.876 43.726Z" fill="#959190"/></svg>
